images/stars.svg

<svg width="113" height="19" viewBox="0 0 113 19" fill="none" xmlns="http://www.w3.org/2000/svg">
<g clip-path="url(#clip0_8_853)">
<path d="M9.43788 1.31569C9.76796 0.531692 10.8922 0.531693 11.2222 1.31569L13.1703 5.94298C13.3096 6.27349 13.6242 6.49932 13.9854 6.52793L19.042 6.92842C19.8987 6.99628 20.2461 8.05253 19.5934 8.60493L15.7408 11.8652C15.4656 12.0981 15.3454 12.4635 15.4295 12.8117L16.6065 17.6865C16.8059 18.5124 15.8965 19.1653 15.163 18.7227L10.8337 16.1103C10.5245 15.9237 10.1356 15.9237 9.8264 16.1103L5.49716 18.7227C4.76366 19.1653 3.85416 18.5124 4.05358 17.6865L5.23063 12.8117C5.31471 12.4635 5.19453 12.0981 4.91935 11.8652L1.06669 8.60493C0.413934 8.05253 0.761335 6.99628 1.61808 6.92842L6.67477 6.52793C7.03596 6.49932 7.35059 6.27349 7.48974 5.94298L9.43788 1.31569Z" fill="#42A8DF"/>
<path d="M32.4836 1.31569C32.8137 0.531692 33.9379 0.531693 34.268 1.31569L36.2161 5.94298C36.3553 6.27349 36.6699 6.49932 37.0311 6.52793L42.0877 6.92842C42.9445 6.99628 43.2919 8.05253 42.6391 8.60493L38.7865 11.8652C38.5114 12.0981 38.3911 12.4635 38.4752 12.8117L39.6522 17.6865C39.8516 18.5124 38.9422 19.1653 38.2087 18.7227L33.8795 16.1103C33.5702 15.9237 33.1813 15.9237 32.8721 16.1103L28.5429 18.7227C27.8094 19.1653 26.8999 18.5124 27.0993 17.6865L28.2763 12.8117C28.3604 12.4635 28.2402 12.0981 27.9651 11.8652L24.1124 8.60493C23.4596 8.05253 23.8071 6.99628 24.6638 6.92842L29.7205 6.52793C30.0817 6.49932 30.3963 6.27349 30.5355 5.94298L32.4836 1.31569Z" fill="#42A8DF"/>
<path d="M55.5293 1.31569C55.8594 0.531692 56.9836 0.531693 57.3137 1.31569L59.2618 5.94298C59.401 6.27349 59.7156 6.49932 60.0768 6.52793L65.1334 6.92842C65.9902 6.99628 66.3376 8.05253 65.6848 8.60493L61.8322 11.8652C61.5571 12.0981 61.4368 12.4635 61.5209 12.8117L62.6979 17.6865C62.8974 18.5124 61.9879 19.1653 61.2544 18.7227L56.9252 16.1103C56.6159 15.9237 56.227 15.9237 55.9178 16.1103L51.5886 18.7227C50.8551 19.1653 49.9456 18.5124 50.145 17.6865L51.3221 12.8117C51.4061 12.4635 51.286 12.0981 51.0108 11.8652L47.1581 8.60493C46.5054 8.05253 46.8528 6.99628 47.7095 6.92842L52.7662 6.52793C53.1274 6.49932 53.442 6.27349 53.5812 5.94298L55.5293 1.31569Z" fill="#42A8DF"/>
<path d="M78.5749 1.31593C78.905 0.531936 80.0292 0.531937 80.3593 1.31593L82.3074 5.94322C82.4466 6.27374 82.7612 6.49957 83.1224 6.52817L88.179 6.92867C89.0358 6.99652 89.3832 8.05278 88.7304 8.60517L84.8778 11.8654C84.6027 12.0984 84.4824 12.4638 84.5665 12.8119L85.7435 17.6867C85.9429 18.5127 85.0335 19.1655 84.3 18.7229L79.9708 16.1106C79.6615 15.9239 79.2726 15.9239 78.9634 16.1106L74.6342 18.7229C73.9007 19.1655 72.9912 18.5127 73.1906 17.6867L74.3677 12.8119C74.4517 12.4638 74.3316 12.0984 74.0564 11.8654L70.2037 8.60517C69.551 8.05278 69.8984 6.99652 70.7551 6.92867L75.8118 6.52817C76.173 6.49957 76.4876 6.27374 76.6268 5.94322L78.5749 1.31593Z" fill="#42A8DF"/>
<path d="M101.621 1.31569C101.951 0.531692 103.075 0.531693 103.405 1.31569L105.353 5.94298C105.492 6.27349 105.807 6.49932 106.168 6.52793L111.225 6.92842C112.082 6.99628 112.429 8.05253 111.776 8.60493L107.924 11.8652C107.648 12.0981 107.528 12.4635 107.612 12.8117L108.789 17.6865C108.989 18.5124 108.079 19.1653 107.346 18.7227L103.017 16.1103C102.707 15.9237 102.318 15.9237 102.009 16.1103L97.68 18.7227C96.9465 19.1653 96.037 18.5124 96.2364 17.6865L97.4135 12.8117C97.4976 12.4635 97.3774 12.0981 97.1022 11.8652L93.2495 8.60493C92.5968 8.05253 92.9442 6.99628 93.8009 6.92842L98.8576 6.52793C99.2188 6.49932 99.5334 6.27349 99.6726 5.94298L101.621 1.31569Z" fill="#42A8DF"/>
</g>
<defs>
<clipPath id="clip0_8_853">
<rect width="111.388" height="18.1379" fill="white" transform="translate(0.727661 0.727692)"/>
</clipPath>
</defs>
</svg>

<svg xmlns="http://www.w3.org/2000/svg" width="113" height="19" fill="none"><g fill="#42A8DF" clip-path="url(#a)"><path d="M9.438 1.316c.33-.784 1.454-.784 1.784 0l1.948 4.627c.14.33.454.556.815.585l5.057.4c.857.068 1.204 1.125.551 1.677l-3.852 3.26a.948.948 0 0 0-.311.947l1.177 4.874c.199.826-.71 1.48-1.444 1.037l-4.33-2.613a.976.976 0 0 0-1.007 0l-4.329 2.613c-.733.442-1.643-.21-1.443-1.037l1.177-4.874a.948.948 0 0 0-.312-.947l-3.852-3.26c-.653-.552-.306-1.609.551-1.677l5.057-.4a.965.965 0 0 0 .815-.585l1.948-4.627ZM32.484 1.316c.33-.784 1.454-.784 1.784 0l1.948 4.627c.14.33.454.556.815.585l5.057.4c.856.068 1.204 1.125.551 1.677l-3.853 3.26a.948.948 0 0 0-.31.947l1.176 4.874c.2.826-.71 1.48-1.443 1.037l-4.33-2.613a.976.976 0 0 0-1.007 0l-4.33 2.613c-.733.442-1.642-.21-1.443-1.037l1.177-4.874a.948.948 0 0 0-.31-.947l-3.854-3.26c-.652-.552-.305-1.609.552-1.677l5.056-.4a.966.966 0 0 0 .816-.585l1.948-4.627ZM55.53 1.316c.33-.784 1.454-.784 1.784 0l1.948 4.627c.139.33.454.556.815.585l5.056.4c.857.068 1.205 1.125.552 1.677l-3.853 3.26a.948.948 0 0 0-.311.947l1.177 4.874c.2.826-.71 1.48-1.444 1.037l-4.329-2.613a.976.976 0 0 0-1.007 0l-4.33 2.613c-.733.442-1.642-.21-1.443-1.037l1.177-4.874a.948.948 0 0 0-.311-.947l-3.853-3.26c-.653-.552-.305-1.609.551-1.677l5.057-.4a.966.966 0 0 0 .815-.585l1.948-4.627ZM78.575 1.316c.33-.784 1.454-.784 1.784 0l1.948 4.627c.14.33.454.557.815.585l5.057.4c.857.069 1.204 1.125.551 1.677l-3.852 3.26a.948.948 0 0 0-.311.947l1.177 4.875c.199.826-.71 1.479-1.444 1.036l-4.33-2.612a.976.976 0 0 0-1.007 0l-4.329 2.612c-.733.443-1.643-.21-1.443-1.036l1.177-4.875a.948.948 0 0 0-.312-.947l-3.852-3.26c-.653-.552-.306-1.608.551-1.676l5.057-.4a.965.965 0 0 0 .815-.586l1.948-4.627ZM101.621 1.316c.33-.784 1.454-.784 1.784 0l1.948 4.627c.139.33.454.556.815.585l5.057.4c.857.068 1.204 1.125.551 1.677l-3.852 3.26a.947.947 0 0 0-.312.947l1.177 4.874c.2.826-.71 1.48-1.443 1.037l-4.329-2.613a.977.977 0 0 0-1.008 0l-4.329 2.613c-.734.442-1.643-.21-1.444-1.037l1.177-4.874a.948.948 0 0 0-.31-.947l-3.853-3.26c-.653-.552-.306-1.609.55-1.677l5.058-.4a.966.966 0 0 0 .815-.585l1.948-4.627Z"/></g><defs><clipPath id="a"><path fill="#fff" d="M.728.728h111.388v18.138H.728z"/></clipPath></defs></svg>
